X:1
T:Title
%%score { 1 | 2 }
L:1/8
M:6/8
K:G
V:1 treble nm="Grand Piano"
V:2 treble 
V:1
 z3 z2[Q:1/4=100] D | G2 G G2 B | d3 B2 G | [FA]2 [FA] [FA][EG][FA] |[M:5/8] B-B- B3 |[M:1/8] D | %6
[M:3/4] G2 G G2 B | d3 [Ec]2 [EA] | [B,DG]2 [B,D] [DGB]2 [CFA] |[M:5/8] [B,DG]-[B,DG]- [B,DG]3 | %10
[M:3/4] d2 dd dd | d3 B3 | [DB]2 [DB][DB] [DB][DB] | [DB]3 [DG]3 | [EG]2 [EG][EG] [DF][CE] | %15
 [B,D]3 [DG]2 [CEA] | [DGB]2 [B,G] [DFB]2 [CFA] |[M:5/8] [G,B,DG]-[G,B,DG]- [G,B,DG]3 |] %18
V:2
 z3 z2 [G,B,] | [G,B,D]2 [G,B,D] [G,B,D]2 [G,DG] | [G,B,G]3 [G,DG]2[K:bass] [G,B,D] | %3
 [D,D]2 [D,D] [D,D]2 [D,D] |[M:5/8][K:treble] [G,DG]-[G,DG]- [G,DG]3 |[M:1/8] [G,B,] | %6
[M:3/4] [G,B,D]2 [G,B,D] [G,B,D]2 [G,DG] | [G,B,G]3[K:bass] [C,C]2 [C,C] | D,2 D, D,2 D, | %9
[M:5/8] G,,-G,,- G,,3 |[M:3/4][K:treble] [G,B,G]2 [G,B,G][G,B,G] [G,B,G][G,B,G] | %11
 [G,B,G]3 [G,DG]3 | [G,,G,]2 [G,,G,][G,,G,] [G,,G,][G,,G,] | [G,,G,]3 [B,,G,]3 | %14
 [C,C]2 [C,C][C,C] [C,C]C, | G,,3 B,,2 C, | D,2 D, D,2 D, |[M:5/8] G,,-G,,- G,,3 |] %18

